X: 183
T: Yellow Submarine Melody Line
C:The Beatles
B: steve song book
M:4/4
L:1/8
Q: 1/4=130
K:G
V:1 
z6 B3/2c/2|d4- d3/2B/2 A3/2B/2|G4 z2 B3/2B/2|A3/2G/2 E3-E/2E/2 B3/2B/2|
A4 z2 B3/2c/2|d4- d3/2B/2 A3/2B/2|G4 z2 B3/2B/2|A3/2G/2 E3-E/2E/2 B3/2B/2|
A4 z2 B3/2c/2|d4- d3/2B/2 A3/2B/2|G4 z2 B3/2B/2|A3/2G/2 E3-E/2E/2 B3/2B/2|
A4 z2 B3/2c/2|d4- d3/2B/2 A3/2B/2|G4 z2 B3/2B/2|AG E2- E/2z3/2 B3/2B/2|
A4- A3/2z2z/2|d2 d2 d2 d3/2e/2|A3/2A/2 A3/2A/2 A2- A/2z3/2|A3/2A/2 A3/2A/2 A2- A/2z3/2|
G3/2G/2 G3/2G/2 G2- G/2z3/2|d2 d2 d2 d3/2e/2|A3/2A/2 A3/2A/2 A2- A/2z3/2|A3/2A/2 A3/2A/2 A2- A/2z3/2|
G3/2G/2 G3/2G/2 G2 B3/2c/2|d4- d3/2B/2 A3/2B/2|G4 z2 BB|A3/2G/2 E2- E/2z3/2 B3/2B/2|
A4 z2 B3/2c/2|d4- d3/2B/2 A3/2B/2|G4 z4|z8|
z8|d2 d2 d2 d3/2e/2|A3/2A/2 A3/2A/2 A2- A/2z3/2|A3/2A/2 A3/2A/2 A2- A/2z3/2|
G3/2G/2 G3/2G/2 G2- G/2z3/2|d2 d2 d2 d3/2e/2|A3/2A/2 A3/2A/2 A2- A/2z3/2|A3/2A/2 A3/2A/2 A2- A/2z3/2|
G3/2G/2 G3/2G/2 G2 B3/2c/2|d4- d3/2B/2 A3/2B/2|G4 z2 BB|A3/2G/2 E2- E/2z3/2 B3/2B/2|
A4 z2 B3/2c/2|d4- d3/2B/2 A3/2B/2|G4 z2 B3/2B/2|AG E2- E/2z3/2 B3/2B/2|
A4- A3/2z2z/2|d2 d2 d2 d3/2e/2|A3/2A/2 A3/2A/2 A2- A/2z3/2|A3/2A/2 A3/2A/2 A2- A/2z3/2|
G3/2G/2 G3/2G/2 G2- G/2z3/2|d2 d2 d2 d3/2e/2|A3/2A/2 A3/2A/2 A2- A/2z3/2|A3/2A/2 A3/2A/2 A2- A/2z3/2|
G3/2G/2 G3/2G/2 G2- G/2z3/2|d2 d2 d2 d3/2e/2|A3/2A/2 A3/2A/2 A2- A/2z3/2|A3/2A/2 A3/2A/2 A2- A/2z3/2|
G3/2G/2 G3/2G/2 G2- G/2z3/2|d2 d2 d2 d3/2e/2|A3/2A/2 A3/2A/2 A2- A/2z3/2|A3/2A/2 A3/2A/2 A2- A/2z3/2|
G3/2G/2 G3/2G/2 G2- G/2
% abcbook-tune_id 62a075dc168d232891210e9c


% abcbook-boost 0
% abcbook-tablature 
% abcbook-transpose 
% abcbook-lastupdated 1655019192106
% abcbook-soundfonts 
% abcbook-repeats 1


